Layouts/MINIMAL/dist/assets/images/reviews-symbol.svg

<svg width="62" height="62" fill="none" xmlns="http://www.w3.org/2000/svg"><g clip-path="url(#a)"><path d="M31 0C13.879 0 0 13.88 0 31.001 0 48.122 13.879 62 31 62c17.12 0 31-13.878 31-30.999S48.12 0 31 0Zm-7.197 31.252c1.506 0 2.691.37 3.554 1.111s1.295 1.829 1.295 3.263c0 1.021-.383 1.976-1.148 2.862-.765.886-1.817 1.33-3.154 1.33-2.091 0-3.585-.686-4.484-2.057-.898-1.37-1.349-3.172-1.349-5.404 0-1.576.341-3.014 1.021-4.311a15.364 15.364 0 0 1 2.479-3.477 17.927 17.927 0 0 1 3.172-2.656 120.54 120.54 0 0 1 2.808-1.783l1.312 2.18A48.328 48.328 0 0 0 26.538 24c-.705.474-1.423 1.097-2.151 1.871-.681.728-1.204 1.491-1.567 2.29-.365.8-.62 1.83-.766 3.09h1.749v.001Zm13.489 0c1.507 0 2.691.37 3.555 1.111.862.741 1.294 1.829 1.294 3.263 0 1.021-.382 1.976-1.147 2.862-.765.886-1.818 1.33-3.153 1.33-2.091 0-3.586-.686-4.485-2.057-.899-1.37-1.349-3.172-1.349-5.404 0-1.576.34-3.014 1.021-4.311a15.333 15.333 0 0 1 2.479-3.477 17.886 17.886 0 0 1 3.171-2.656 118.23 118.23 0 0 1 2.809-1.783l1.312 2.18A48.683 48.683 0 0 0 40.028 24c-.705.474-1.422 1.097-2.151 1.871-.704.751-1.233 1.521-1.586 2.309-.352.787-.602 1.812-.747 3.071h1.748v.001Z" fill="#000"/></g><defs><clipPath id="a"><path fill="#fff" d="M0 0h62v62H0z"/></clipPath></defs></svg>

<svg width="62" height="62" viewBox="0 0 62 62" fill="none" xmlns="http://www.w3.org/2000/svg">
<g clip-path="url(#clip0_1_212)">
<path d="M31 0C13.879 0 0 13.88 0 31.001C0 48.122 13.879 62 31 62C48.12 62 62 48.122 62 31.001C62 13.88 48.12 0 31 0ZM23.803 31.252C25.309 31.252 26.494 31.622 27.357 32.363C28.22 33.104 28.652 34.192 28.652 35.626C28.652 36.647 28.269 37.602 27.504 38.488C26.739 39.374 25.687 39.818 24.35 39.818C22.259 39.818 20.765 39.132 19.866 37.761C18.968 36.391 18.517 34.589 18.517 32.357C18.517 30.781 18.858 29.343 19.538 28.046C20.219 26.748 21.046 25.589 22.017 24.569C23.014 23.526 24.071 22.641 25.189 21.913C26.307 21.185 27.243 20.591 27.997 20.13L29.309 22.31C28.166 22.964 27.243 23.529 26.538 24C25.833 24.474 25.115 25.097 24.387 25.871C23.706 26.599 23.183 27.362 22.82 28.161C22.455 28.961 22.2 29.991 22.054 31.251H23.803V31.252ZM37.292 31.252C38.799 31.252 39.983 31.622 40.847 32.363C41.709 33.104 42.141 34.192 42.141 35.626C42.141 36.647 41.759 37.602 40.994 38.488C40.229 39.374 39.176 39.818 37.841 39.818C35.75 39.818 34.255 39.132 33.356 37.761C32.457 36.391 32.007 34.589 32.007 32.357C32.007 30.781 32.347 29.343 33.028 28.046C33.709 26.748 34.535 25.589 35.507 24.569C36.503 23.526 37.56 22.641 38.678 21.913C39.796 21.185 40.732 20.591 41.487 20.13L42.799 22.31C41.657 22.964 40.733 23.529 40.028 24C39.323 24.474 38.606 25.097 37.877 25.871C37.173 26.622 36.644 27.392 36.291 28.18C35.939 28.967 35.689 29.992 35.544 31.251H37.292V31.252Z" fill="black"/>
</g>
<defs>
<clipPath id="clip0_1_212">
<rect width="62" height="62" fill="white"/>
</clipPath>
</defs>
</svg>
